X:1
T:Lord hear my prayer
T:William Byrd
T:Psalm 102
T:Lord hear my prayer
C:William Byrd
Z:Psalm 102
%%score [ 1 2 3 ]
L:1/8
M:4/4
K:C
V:1 treble nm="A"
V:2 treble-8 transpose=-12 nm="T"
V:3 bass nm="B"
V:1
 z4 A,4 | C3 D E2 A,2- | A,2 A4 ^G2 | A2 z D F2 E2 | C3 D E4 | C2 G2- GF E2- | E2 (DC) B,4 | %7
w: Lord|hear my pray- er|* in- stant-|ly which I be-|fore thee make,|be- fore * thee make,|* thee * make,|
 z2 B,2 C2 D2 | E4 z4 | z2 E2 F2 G2 | A4 G2 G2- | G2 ^F2 G4 | z4 D2 E2 | ^C2 D4 C2 | D4 z4 | %15
w: and let my|cry,|and let my|cry come un-|* to thee,|do not|the same for-|sake,|
 A2 B2 ^G2 A2- | A2 ^G2 A4 | z4 z2 E2 | F2 D2 F2 E2 | F3 G E4- | E4 z2 A2 | G3 E G2 F2 | E4 z2 E2 | %23
w: do not the same|* for- sake.|Turn|not a- way thy|face from me|* when|trou- bles me op-|press, when|
 D3 B, C2 A,2 | ^G,2 z (B, CDEF) | E4 z2 E2 | A4 z2 A,2 | E4 D2 G2- | G(FED) C2 C2 | B,4 z4 | %30
w: trou- bles me op-|press, op- * * * *|press. Each|day, each|day in- cline|* thine * * ear to|me|
 z4 z2 B,2 | (C3 D E)D G2- | G(F E4 D2) | E8 | z4 z2 E2 | (G3 A B)A c2- | c(B A4 ^G2) | A8 |] %38
w: and|suc- * * cour my|* dis- * *|stress,|and|suc- * * cour my|* dis- * *|tress.|
V:2
 A4 c3 d | e2 A2 c4- | c4 B4 | A8 | z2 A2 c2 B2 | A2 B2 c2 G2 | c2 (BA) ^G4 | z2 =G2 A2 B2 | %8
w: Lord hear my|pray- er in-|* stant-|ly|which I be-|fore thee make, be-|fore thee * make,|and let my|
 c3 e d2 d2 | c4 z2 B2 | c2 d2 e3 B | c2 A2 G4 | G2 A2 ^F2 G2- | G2 (=F2 E4) | D2 d2 e2 ^c2- | %15
w: cry come un- to|thee, and|let my cry come|un- to thee,|do not the same|* for- *|sake, do not the|
 c2 d4 (=c2 | B4) A4- | A4 A4 | A8 | z2 A2 c2 B2 | c2 A2 c3 d | B8 | z2 A2 G2 EA- | %23
w: * same for-|* sake,|* for-|sake.|Turn not a-|way thy face from|me|when trou- bles me|
 A(^G/^F/ G2) A2 c2 | B4 z4 | E2 A2 G2 c2- | c(BAG) F2 F2 | E2 C2 G3 F | E(DCD) E2 E2 | %29
w: * op- * * press, op-|press.|Each day in- cline|* thine * * ear to|me, in- cline thine|ear to * * me and|
 (G3 A BA) c2- | c(B A4 ^G2) | A2 A2 =G2 E2 | G3 (F ECGF) | E2 A2 c3 d | ed f2- f(e c2) | %35
w: suc- * * cour my|* dis- * *|tress, and suc- cour|my dis- * * * *|tress, and suc- *|* cour my * dis- *|
 B2 e2 d2 e2 | A4 B4 | ^c8 |] %38
w: tress, and suc- cour|my dis-|tress.|
V:3
 z8 | z4 A,,4 | C,3 D, E,4 | ^C,2 D,4 =C,2 | A,,4 z2 E,2 | F,2 E,2 C,4- | C,2 D,2 E,4- | E,4 z4 | %8
w: |Lord|hear my pray-|er in- stant-|ly which|I be- fore|* thee make,||
 z2 C,2 F,2 G,2 | A,6 G,2 | F,2 F,2 E,4 | C,2 D,2 B,,2 C,2- | C,2 A,,2 B,,2 G,,2 | A,,8 | %14
w: and let my|cry come|un- to thee,|do not the same|* for- sake, for-|sake,|
 A,2 B,2 ^G,2 A,2- | A,2 D,2 E,4- | E,4 z2 ^C,2 | D,2 A,,2 D,2 ^C,2 | D,3 D, A,,4 | %19
w: do not the same|* for- sake.|* Turn|not a- way thy|face from me,|
 z2 D,2 A,2 ^G,2 | A,2 C2 A,3 D, | E,4 z2 D,2 | C,3 A,, C,4 | B,,4 A,,4 | z2 E,2 A,4 | %25
w: turn not a-|way thy face from|me when|trou- bles me|op- press.|Each day|
 G,2 C2- C(B,A,G,) | F,3 E, D,4 | C,2 G,2- G,(F,E,D,) | C,3 B,, A,,4 | z2 E,2 D,2 C,2 | F,4 E,4 | %31
w: in- cline * thine * *|ear to me,|in- cline * thine * *|ear to me|and suc- cour|my dis-|
 A,,4 z4 | z2 E,2 (G,3 A, | B,)A, C2- C(B, A,2- | A,2 D,2) A,4 | E,4 G,2 C,2 | F,4 E,4 | A,,8 |] %38
w: tress,|and suc- *|* cour my * dis- *|* * tress,|and suc- cour|my dis-|tress.|

